X:1
T:Title
%%score { 1 | 2 }
L:1/8
M:6/8
K:G
V:1 treble nm="Grand Piano"
V:2 bass 
V:1
 z3 z2[Q:1/4=84] [B,D] | [B,D]GB ddd | edB d2 B | [GB][FA][=F^G] [^FA][=GB][FA] | %4
 [DA][DG][CE] [B,D]2 [B,D] | [B,D]GB ddd | edB d2 B | [EA][EG][G,CE] [G,B,D][B,DG][DGB] | %8
[M:15/16] [^CGA][DGB]/-[DGB]/[EG^c][DFd]3/2- [DFd]3 |[M:3/4] d>^c d B3 | d>^c d B2 [B,D] | %11
 [B,D]G Bd dd | ed B [FA]3 | d>^c d B3 | B>c d [Ge]3 | %15
 [Ge][Gd] [GB] [GB]2 [CFA][Q:1/4=81][Q:1/4=79][Q:1/4=76][Q:1/4=74][Q:1/4=71][Q:1/4=68][Q:1/4=66] | %16
[M:5/8] [B,DG]-[B,DG]- [B,DG]3 |] %17
V:2
 z3 z2 [G,,G,] | [G,,G,][K:treble][G,B,D][G,DG] [G,B,G][G,B,G][G,B,G] | %2
 [G,CG][G,B,G][G,DG] [G,B,G]2 [G,DG] | [D,D][D,D][D,D] [D,D][D,D][D,C] | %4
 [G,C][G,B,][G,,G,] [G,,G,]2 [G,,G,] | [G,,G,][K:treble][G,B,D][G,DG] [G,B,G][G,B,G][G,B,G] | %6
 [G,CG][G,B,G][G,DG] [G,B,G]2 [G,DG] | [C,C][C,C]C, G,,G,,G,, | %8
[M:15/16] A,,A,,/-A,,/A,,D,3/2- D,3 |[M:3/4][K:treble] [G,B,G]>[G,_B,G] [G,=B,G] [G,DG]3 | %10
 [G,B,G]>[G,_B,G] [G,=B,G] [G,DG]2[K:bass] [G,,G,] | %11
 [G,,G,][K:treble][G,B,D] [G,DG][G,B,G] [G,B,G][G,B,G] | [G,CG][G,B,G] [G,DG] [D,D]3 | %13
 [G,B,G]>[G,_B,G] [G,=B,G] [G,DG]3 | [G,D=F]>[G,DF] [G,B,F][K:bass] [C,C]3 | %15
 [D,B,][D,B,] [D,D] [D,D]2 D, |[M:5/8] G,,-G,,- G,,3 |] %17

